build/assets/images/content/checkmark.svg

<svg width="175" height="126" viewBox="0 0 175 126" fill="none" xmlns="http://www.w3.org/2000/svg">
<path d="M149.35 4.393L64.4965 89.246L25.6065 50.355C19.7495 44.498 10.2515 44.497 4.3935 50.354C-1.4645 56.212 -1.4645 65.709 4.3935 71.567L53.8895 121.065C56.7025 123.878 60.5175 125.459 64.4955 125.459C64.4965 125.459 64.4955 125.459 64.4965 125.459C68.4745 125.459 72.2895 123.878 75.1025 121.066L170.564 25.607C176.422 19.749 176.422 10.252 170.564 4.394C164.706 -1.464 155.208 -1.465 149.35 4.393Z" fill="#176632"/>
</svg>

<svg width="175" height="126" fill="none" xmlns="http://www.w3.org/2000/svg"><path d="M149.35 4.393L64.497 89.246l-38.89-38.891c-5.857-5.857-15.355-5.858-21.213-.001-5.859 5.858-5.859 15.355 0 21.213l49.495 49.498a15 15 0 0010.607 4.394c3.979 0 7.794-1.581 10.607-4.393l95.461-95.459c5.858-5.858 5.858-15.355 0-21.213-5.858-5.858-15.356-5.859-21.214-.001z" fill="#176632"/></svg>
